X: 25139
T: Mairtin O'Connor's
R: reel
M: 4/4
K: Amajor
af|:ecBA FA E2|ecBA fbaf|ecBA FAAF|EFAB cAcd|
ecBA FA E2|ecBA fbaf|ecBA FAAF|EFAB cAB/c/d:|
|:e3 e fe e2|fa a2 baaf|e3 e feaf|ecBA FA E2|
e3 e fee2|faa2 baaf|e3 e feaf|ecBA bafb:|

